Logos/Morphisec_Logo.svg

<svg id="f8a78c88-c469-46fa-be85-47fa820f7cd7" xmlns="http://www.w3.org/2000/svg" version="1.1" width="72" height="72" viewBox="0 0 72 72">
<g transform="matrix(1 0 0 1 36 36)" id="19f4aaee-5eb3-4c1f-9e26-d0cb2044cec3"  >
<rect style="stroke: none; stroke-width: 1; stroke-dasharray: none; stroke-linecap: butt; stroke-dashoffset: 0; stroke-linejoin: miter; stroke-miterlimit: 4; fill: rgb(255,255,255); fill-rule: nonzero; opacity: 1;" vector-effect="non-scaling-stroke"  x="-36" y="-36" rx="0" ry="0" width="72" height="72" />
</g>
<g transform="matrix(Infinity NaN NaN Infinity 0 0)" id="b226becf-48f1-4d51-a4cf-3f1602cdec2a"  >
</g>
<g transform="matrix(0.3 0 0 0.3 36 36)" id="5d556b7b-c4c5-4a9b-8698-63fb777ca329"  >
<path style="stroke: rgb(0,0,0); stroke-width: 0; stroke-dasharray: none; stroke-linecap: butt; stroke-dashoffset: 0; stroke-linejoin: miter; stroke-miterlimit: 4; fill: rgb(0,0,0); fill-rule: nonzero; opacity: 1;" vector-effect="non-scaling-stroke"  transform=" translate(-80.88, -84.86)" d="M 57.34 30.24 L 33.650000000000006 38.239999999999995 L 33.650000000000006 115.64999999999999 L 45.49000000000001 139.47 L 128.1 139.47 L 128.1 43.36 L 128.1 43.36 Z M 114.46000000000001 126.24 L 57.59 126.24 L 57.34 58.019999999999996 L 104.34 67.66 L 104.34 116.59 L 59.84 116.59 L 59.84 124 L 112.21000000000001 124 L 112.21000000000001 123.91 L 106.61000000000001 117.84 L 106.61000000000001 65.84 L 43.06000000000002 52.84 L 43.06000000000002 128.42000000000002 L 36.15000000000002 115.24000000000001 L 36.15000000000002 41.12 L 114.15000000000002 57.48 L 114.45000000000002 126.16 L 114.45000000000002 126.16 Z" stroke-linecap="round" />
</g>
</svg>

<svg id="f8a78c88-c469-46fa-be85-47fa820f7cd7" viewBox="0 0 72 72">
<title>
MorphLogoHorizBlackNoTag_RGB
</title>
<path d="M57.34,30.24l-23.69,8v77.41l11.84,23.82H128.1V43.36h0Zm57.12,96H57.59l-.25-68.22,47,9.64v48.93H59.84V124h52.37v-.09l-5.6-6.07v-52l-63.55-13v75.58l-6.91-13.18V41.12l78,16.36.3,68.68,0,0Z"/>
</svg>
